X:1
T:Waltz For Mirjam
L:1/8
M:3/4
I:linebreak $
K:G
V:1 treble 
V:1
 D2 |: G2 GA B2 | G2 D2 GF | E2 EF GE | D4 GF | ED EF GA | FE FG A2 |1 B2 Bd cB | B3 c A2 :|2$ %9
 BA Bc AF | G3 A Bd |: ec Gg fd | B2 GA Bd | cB ce df | e2 BA Bd |1 e2 fg f^d | e2 BG EB |$ %17
 c{B}A ce ^df | g3 a{f} ed :|2 e{e}f ga ge | d2 GF GB | c{B}A GF DF | G4 || %23
